ibt/assets/img/icons/instagram-ico.svg

<svg width="22" height="21" viewBox="0 0 22 21" fill="none" xmlns="http://www.w3.org/2000/svg">
<path fill-rule="evenodd" clip-rule="evenodd" d="M18.6036 0H3.89771C2.20835 0 0.833984 1.37437 0.833984 3.06373V17.7696C0.833984 19.459 2.20835 20.8333 3.89771 20.8333H18.6036C20.2929 20.8333 21.6673 19.459 21.6673 17.7696V3.06373C21.6673 1.37437 20.2929 0 18.6036 0ZM20.4418 17.7696C20.4418 18.7833 19.6173 19.6078 18.6036 19.6078H3.89771C2.88405 19.6078 2.05947 18.7833 2.05947 17.7696V3.06373C2.05947 2.05006 2.88405 1.22549 3.89771 1.22549H18.6036C19.6173 1.22549 20.4418 2.05006 20.4418 3.06373V17.7696ZM11.2505 4.76172C8.13249 4.76172 5.5957 7.29851 5.5957 10.4165C5.5957 13.5345 8.13249 16.0712 11.2505 16.0712C14.3684 16.0712 16.9052 13.5345 16.9052 10.4165C16.9052 7.29851 14.3684 4.76172 11.2505 4.76172ZM11.2505 14.8146C8.82535 14.8146 6.85232 12.8416 6.85232 10.4165C6.85232 7.99136 8.82535 6.01833 11.2505 6.01833C13.6756 6.01833 15.6486 7.99136 15.6486 10.4165C15.6486 12.8416 13.6756 14.8146 11.2505 14.8146ZM15.7129 4.16657C15.7129 3.18187 16.5139 2.38086 17.4986 2.38086C18.4833 2.38086 19.2843 3.18187 19.2843 4.16657C19.2843 5.15127 18.4833 5.95229 17.4986 5.95229C16.5139 5.95229 15.7129 5.15127 15.7129 4.16657ZM16.9034 4.16657C16.9034 4.49488 17.1703 4.76181 17.4986 4.76181C17.8269 4.76181 18.0938 4.49488 18.0938 4.16657C18.0938 3.83826 17.8269 3.57134 17.4986 3.57134C17.1703 3.57134 16.9034 3.83826 16.9034 4.16657Z" fill="#DDDDDD"/>
</svg>

<svg width="22" height="21" fill="none" xmlns="http://www.w3.org/2000/svg"><path fill-rule="evenodd" clip-rule="evenodd" d="M18.604 0H3.898A3.067 3.067 0 00.834 3.064V17.77a3.067 3.067 0 003.064 3.063h14.706a3.067 3.067 0 003.063-3.063V3.064A3.067 3.067 0 0018.604 0zm1.838 17.77a1.84 1.84 0 01-1.838 1.838H3.898a1.84 1.84 0 01-1.839-1.838V3.064a1.84 1.84 0 011.839-1.839h14.706a1.84 1.84 0 011.838 1.839V17.77zM11.25 4.762a5.661 5.661 0 00-5.655 5.654 5.661 5.661 0 005.655 5.655 5.661 5.661 0 005.654-5.655 5.661 5.661 0 00-5.655-5.654zm0 10.053a4.403 4.403 0 01-4.399-4.399 4.403 4.403 0 014.399-4.398 4.403 4.403 0 014.398 4.398 4.403 4.403 0 01-4.398 4.399zm4.462-10.648c0-.985.8-1.786 1.786-1.786a1.787 1.787 0 010 3.571 1.788 1.788 0 01-1.786-1.785zm1.19 0a.596.596 0 101.192-.001.596.596 0 00-1.192 0z" fill="#DDD"/></svg>
